public/avatar/hat/138.svg

<svg xmlns:xlink="http://www.w3.org/1999/xlink" height="92.9" width="100.7" xmlns="http://www.w3.org/2000/svg"><use height="37.3" transform="translate(18.2 32.15)" width="39.4" xlink:href="#a"/><defs><g id="a" fill-rule="evenodd"><path d="m3.2-16.35.15 3.55-.15 2.2.1-.3q.1-.4.45-.4.45 0 .5.3 1.5 3.6-.85 5.3Q2.15-4.4.1-3.9l-3.75-.2-.15-.1-.2-.1q-4.05-2.05-1.55-7.8l.5-.3q.35.1.4.4l.35 1.2q.55 1.9 1 2.5l-.1-.65q0-4.2 5.75-8.6l.5-.05.3.45.05.8m-18.5 16 .35-.25.4.1Q-13.2.7-11.3.95l2.05-.2 2.2-1.45Q-4.4-2.15-1.5-2.3 4.65-2.75 8.65-.5 11 .8 13.5 3.95q2.75 3.25 4.95 3 .35 0 .5.25l-.05.55q-1.1 1.45-2.85 2.1-2.25.9-4.35-.3l-.1-.15Q7.95 4.8-.4 4.85q-4.3.3-8.2 3.15-2.7 1.95-3.75 3.7-1.25 2.1-3.35 2.4-2.6.5-4.55-1.2l-.2-.35v-.15l.4-.35q1.95-.45 2.8-3.05 1.2-3.45 3.8-5Q-15.4 2.45-15.4.2l.1-.55" fill="#153060" transform="translate(20.45 17.6)"/><path d="M10.5 5.05q1.45.85 2.75 3.25 1.35 2.8 4.3 3.75.25.05.35.45l-.3.5q-4.1 2.1-8.25-1.3-.45 4.05-2.85 6.45l-.55.1q-.3-.15-.3-.45v-.45q0-6.15-3.3-9.3-.8 6.25-3.6 9.4l-.55.15-.3-.5v-.6q0-1.75-.65-5.2l-.5-3.45q-5.3 4.15-5.3 8.5l.15 1.95.1.95.05.05q0 .3-.3.4l-.6-.1q-4.15-3.7-4-7.45.05-2.1 1.35-3.9.8-1.15 1.4-1.55Q-1.25-.5 10 4.8l.5.25" fill="#153060" transform="translate(20.45 17.6)"/><path d="M1.8 2.05q2.8.2 7.15 2.2 2.25 1.3 3.6 4.6 1.2 2.95 3.75 3.75-2.55.85-5.15-.85L9 9.85q-.35 3.95-2.35 6.45.05-4.6-2.55-8.05L1.45 5.7q.2 1.1-.5 4.5-.8 4.1-2.15 5.65.1-2-.8-5.35-.85-3.1-.7-4.2-7.4 4.15-6.45 12.1-4.05-4.05-2.55-8.7.5-1.5 1.45-2.85l.85-1.05Q-4 1.5 1.8 2.05" fill="#67c6dd" transform="translate(20.45 17.6)"/><path d="M-11.4 15.25q-.05-6.7 9.15-10.3 0 .5-.9 1.65-6.95 4.2-6 11.8-1.55-1.55-2.25-3.15m21.9-5.5Q12 11.5 14 11.3q1.05.95 2.3 1.3-2.55.85-5.15-.85L9 9.85q-.35 3.95-2.35 6.45.05-4.6-2.55-8.05L1.45 5.7q.2 1.1-.5 4.5-.8 4.1-2.15 5.65.05-1.35-.3-3.25 1.05-1.2 1.45-3.4L.5 5q3.45.35 6.6 5 .5-1.4.6-3.25l2.8 3" fill="#1f7da6" transform="translate(20.45 17.6)"/><path d="M-6.85.6Q-4.1-.75-1.45-.9 6.65-1.45 11 3.15l2.85 3.15q1.55 1.4 3.45 1.15-2.8 3.5-6.15 1.55Q7.7 4.45-.55 4.55q-4.4.3-8.35 3.1-2.35 1.65-3.55 3.3-1.5 2-3.75 2.25-1.8.2-2.8-.65 2.1-.45 3.1-3.45 1.15-3.4 3.9-4.85Q-14.05 2.7-14.25.6q1.2 1.6 3.1 1.8 1.6.15 2.05-.45L-6.85.6" fill="#67c6dd" transform="translate(20.45 17.6)"/><path d="M-10.25 6.95q-1.3.4-1.7 1.55l-.35 2.25-.15.2q-1.5 2-3.75 2.25-1.8.2-2.8-.65l1.35-.55Q-16 11.8-14 9.3q1.9-2.35 3.75-2.35M-14 1.75l3.85 2-1.9.4Q-13.5 3.1-14 1.75m30.5 5.7h.8q-1.75 2.2-4.15 2.15-1.4-.9-1.4-3.65 1 2.95 4.75 1.5" fill="#1f7da6" transform="translate(20.45 17.6)"/><path d="M1.5-8.3q.4.2 1.1-.35.7-.5.9-1.15.95 2.25-1.15 3.7-2.55 2.7-5.4 1.3-1-.45-1.7-1.4-1.4-1.75-.25-4.7.4 3.5 2.55 3.95l.3-2.55q.75-3.2 4.1-5.85.4 5.9-.45 7.05" fill="#67c6dd" transform="translate(20.45 17.6)"/><path d="M3.65-9.3q.5 1.9-1.3 3.2Q.7-4.35-1.8-4.5q-2.85-2.15-3.35-6l.15-.4q.4 3.5 2.55 3.95l.35-2.7q.3 1.5 1.25 2.85.7-1.3 1.5-3.95.8-2.85 1.35-4 .35 5.3-.5 6.45l.15.05-.9 1.2q2.55 0 2.9-2.25" fill="#1f7da6" transform="translate(20.45 17.6)"/><path d="M2.6-5.05q.9 2.4.1 3.55-.2.35-.8.2-1.85-.35-5.2.1l-.45-.15q-.3-.3-.15-1.95l.05-.35q0-.4.75-.9 2.8-1.85 5.4-.8l.3.3" fill="#153060" transform="translate(20.45 17.6)"/><path d="m1.6-2.45-4.25.3V-3.6l1.3-.85 2.85-.1q.55 1.5.1 2.1" fill="#67c6dd" transform="translate(20.45 17.6)"/><path d="M1.5-4.55q.55 1.5.1 2.1l-4.25.3-.1-.55 2.2-.55q1.45-.2 2.05-1.3m-13.55 8.7L-14 1.75l1.1.95q1.4.95 2.75 1.05-1.2.6-1.9.4" fill="#1f7da6" transform="translate(20.45 17.6)"/><path d="m1.85-15.35-.5.7-1.6 2.9q-1.2 2.1-1.35 3.5l-.2-1.05q-.1-.5.35-1.7.55-1.4 1.5-2.35l1.3-1.3.2-.55.3-.15m-7.2 5.25.35-.3q-.3.95.05 2.55.3 1.5.9 2.25-1.65-1.3-1.3-4.5" fill="#dff5f7" transform="translate(20.45 17.6)"/><path d="m1.25-4.6-.1.3L-.1-4q-1.9.65-2.3 1.8-.15-1.7.25-2.05 1.05-.9 3.4-.35" fill="#bfe8ef" transform="translate(20.45 17.6)"/><path d="m-14.2 1.05-.2-.4q2.45 2.7 4.55 2.05l-2.45-.05q-1.3-.55-1.9-1.6m.95 4.05v-.15l1.4-.1 2.45-.05q-2.6 1.8-3.3 1.9.35-.65 1.35-1.15-1.2.45-2.05 1.3l-2.55 3.25q0-2.6 2.7-5M2.9 1.85l2.6-.3Q3.3 3.1 0 3.1q-1.6 0-2.45.45l-1.45.5q1.5-1.3 1.55-1.75Q-3.6 3.55-5.9 4.4q.35-1.1 1.1-2.25L-8.3 4.2l.9-1.75Q-5.9 1.5-5.45.7q1.75.85 3.5 1.15H2.9" fill="#dff5f7" transform="translate(20.45 17.6)"/><path d="M7.1 2.1q.75.45 1.15 1.25-1.9-.7-2.9-.85-1.6-.35-1.95-.65l1.65-.45Q6.1 1 6.3.3V.15l2.5 1.5 1.25 1.8Q8.15 2.15 7.1 2.1" fill="#dff5f7" transform="translate(20.45 17.6)"/></g></defs></svg>

<?xml version="1.0" encoding="UTF-8" standalone="no"?>
<svg xmlns:xlink="http://www.w3.org/1999/xlink" height="92.9px" width="100.7px" xmlns="http://www.w3.org/2000/svg">
  <g transform="matrix(1.0, 0.0, 0.0, 1.0, 38.65, 49.75)">
    <use height="37.3" transform="matrix(1.0, 0.0, 0.0, 1.0, -20.45, -17.6)" width="39.4" xlink:href="#shape0"/>
  </g>
  <defs>
    <g id="shape0" transform="matrix(1.0, 0.0, 0.0, 1.0, 20.45, 17.6)">
      <path d="M3.2 -16.35 L3.35 -12.8 3.2 -10.6 3.3 -10.9 Q3.4 -11.3 3.75 -11.3 4.2 -11.3 4.25 -11.0 5.75 -7.4 3.4 -5.7 2.15 -4.4 0.1 -3.9 L-3.65 -4.1 -3.8 -4.2 -4.0 -4.3 Q-8.05 -6.35 -5.55 -12.1 L-5.05 -12.4 Q-4.7 -12.3 -4.65 -12.0 L-4.3 -10.8 Q-3.75 -8.9 -3.3 -8.3 L-3.4 -8.95 Q-3.4 -13.15 2.35 -17.55 L2.85 -17.6 3.15 -17.15 3.2 -16.35" fill="#153060" fill-rule="evenodd" stroke="none"/>
      <path d="M-15.3 -0.35 L-14.95 -0.6 -14.55 -0.5 Q-13.2 0.7 -11.3 0.95 L-9.25 0.75 -7.05 -0.7 Q-4.4 -2.15 -1.5 -2.3 4.65 -2.75 8.65 -0.5 11.0 0.8 13.5 3.95 16.25 7.2 18.45 6.95 18.8 6.95 18.95 7.2 L18.9 7.75 Q17.8 9.2 16.05 9.85 13.8 10.75 11.7 9.55 L11.6 9.4 Q7.95 4.8 -0.4 4.85 -4.7 5.15 -8.6 8.0 -11.3 9.95 -12.35 11.7 -13.6 13.8 -15.7 14.1 -18.3 14.6 -20.25 12.9 L-20.45 12.55 -20.45 12.4 -20.05 12.05 Q-18.1 11.6 -17.25 9.0 -16.05 5.55 -13.45 4.0 -15.4 2.45 -15.4 0.2 L-15.3 -0.35" fill="#153060" fill-rule="evenodd" stroke="none"/>
      <path d="M10.5 5.05 Q11.95 5.9 13.25 8.3 14.6 11.1 17.55 12.05 17.8 12.1 17.9 12.5 L17.6 13.0 Q13.5 15.1 9.35 11.7 8.9 15.75 6.5 18.15 L5.95 18.25 Q5.65 18.1 5.65 17.8 L5.65 17.35 Q5.65 11.2 2.35 8.05 1.55 14.3 -1.25 17.45 L-1.8 17.6 -2.1 17.1 -2.1 16.5 Q-2.1 14.75 -2.75 11.3 L-3.25 7.85 Q-8.55 12.0 -8.55 16.35 L-8.4 18.3 -8.3 19.25 -8.25 19.3 Q-8.25 19.6 -8.55 19.7 L-9.15 19.6 Q-13.3 15.9 -13.15 12.15 -13.1 10.05 -11.8 8.25 -11.0 7.1 -10.4 6.7 -1.25 -0.5 10.0 4.8 L10.5 5.05" fill="#153060" fill-rule="evenodd" stroke="none"/>
      <path d="M1.8 2.05 Q4.6 2.25 8.95 4.25 11.2 5.55 12.55 8.85 13.75 11.8 16.3 12.6 13.75 13.45 11.15 11.75 L9.0 9.85 Q8.65 13.8 6.65 16.3 6.7 11.7 4.1 8.25 L1.45 5.7 Q1.65 6.8 0.95 10.2 0.15 14.3 -1.2 15.85 -1.1 13.85 -2.0 10.5 -2.85 7.4 -2.7 6.3 -10.1 10.45 -9.15 18.4 -13.2 14.35 -11.7 9.7 -11.2 8.2 -10.25 6.85 L-9.4 5.8 Q-4.0 1.5 1.8 2.05" fill="#67c6dd" fill-rule="evenodd" stroke="none"/>
      <path d="M-11.4 15.25 Q-11.45 8.55 -2.25 4.95 -2.25 5.45 -3.15 6.6 -10.1 10.8 -9.15 18.4 -10.7 16.85 -11.4 15.25" fill="#1f7da6" fill-rule="evenodd" stroke="none"/>
      <path d="M10.5 9.75 Q12.0 11.5 14.0 11.3 15.05 12.25 16.3 12.6 13.75 13.45 11.15 11.75 L9.0 9.85 Q8.65 13.8 6.65 16.3 6.7 11.7 4.1 8.25 L1.45 5.7 Q1.65 6.8 0.95 10.2 0.15 14.3 -1.2 15.85 -1.15 14.5 -1.5 12.6 -0.45 11.4 -0.05 9.2 L0.5 5.0 Q3.95 5.35 7.1 10.0 7.6 8.6 7.7 6.75 L10.5 9.75" fill="#1f7da6" fill-rule="evenodd" stroke="none"/>
      <path d="M-6.85 0.6 Q-4.1 -0.75 -1.45 -0.9 6.65 -1.45 11.0 3.15 L13.85 6.3 Q15.4 7.7 17.3 7.45 14.5 10.95 11.15 9.0 7.7 4.45 -0.55 4.55 -4.95 4.85 -8.9 7.65 -11.25 9.3 -12.45 10.95 -13.95 12.95 -16.2 13.2 -18.0 13.4 -19.0 12.55 -16.9 12.1 -15.9 9.1 -14.75 5.7 -12.0 4.25 -14.05 2.7 -14.25 0.6 -13.05 2.2 -11.15 2.4 -9.55 2.55 -9.1 1.95 L-6.85 0.6" fill="#67c6dd" fill-rule="evenodd" stroke="none"/>
      <path d="M-10.25 6.95 Q-11.55 7.35 -11.95 8.5 L-12.3 10.75 -12.45 10.95 Q-13.95 12.95 -16.2 13.2 -18.0 13.4 -19.0 12.55 L-17.65 12.0 Q-16.0 11.8 -14.0 9.3 -12.1 6.95 -10.25 6.95" fill="#1f7da6" fill-rule="evenodd" stroke="none"/>
      <path d="M-14.0 1.75 L-10.15 3.75 -12.05 4.15 Q-13.5 3.1 -14.0 1.75" fill="#1f7da6" fill-rule="evenodd" stroke="none"/>
      <path d="M16.5 7.45 L17.3 7.45 Q15.55 9.65 13.15 9.6 11.75 8.7 11.75 5.95 12.75 8.9 16.5 7.45" fill="#1f7da6" fill-rule="evenodd" stroke="none"/>
      <path d="M1.5 -8.3 Q1.9 -8.1 2.6 -8.65 3.3 -9.15 3.5 -9.8 4.45 -7.55 2.35 -6.1 -0.2 -3.4 -3.05 -4.8 -4.05 -5.25 -4.75 -6.2 -6.15 -7.95 -5.0 -10.9 -4.6 -7.4 -2.45 -6.95 L-2.15 -9.5 Q-1.4 -12.7 1.95 -15.35 2.35 -9.45 1.5 -8.3" fill="#67c6dd" fill-rule="evenodd" stroke="none"/>
      <path d="M3.65 -9.3 Q4.15 -7.4 2.35 -6.1 0.7 -4.35 -1.8 -4.5 -4.65 -6.65 -5.15 -10.5 L-5.0 -10.9 Q-4.6 -7.4 -2.45 -6.95 L-2.1 -9.65 Q-1.8 -8.15 -0.85 -6.8 -0.15 -8.1 0.65 -10.75 1.45 -13.6 2.0 -14.75 2.35 -9.45 1.5 -8.3 L1.65 -8.25 0.75 -7.05 Q3.3 -7.05 3.65 -9.3" fill="#1f7da6" fill-rule="evenodd" stroke="none"/>
      <path d="M2.6 -5.05 Q3.5 -2.65 2.7 -1.5 2.5 -1.15 1.9 -1.3 0.05 -1.65 -3.3 -1.2 L-3.75 -1.35 Q-4.05 -1.65 -3.9 -3.3 L-3.85 -3.65 Q-3.85 -4.05 -3.1 -4.55 -0.3 -6.4 2.3 -5.35 L2.6 -5.05" fill="#153060" fill-rule="evenodd" stroke="none"/>
      <path d="M1.6 -2.45 L-2.65 -2.15 -2.65 -3.6 -1.35 -4.45 1.5 -4.55 Q2.05 -3.05 1.6 -2.45" fill="#67c6dd" fill-rule="evenodd" stroke="none"/>
      <path d="M1.5 -4.55 Q2.05 -3.05 1.6 -2.45 L-2.65 -2.15 -2.75 -2.7 -0.55 -3.25 Q0.9 -3.45 1.5 -4.55" fill="#1f7da6" fill-rule="evenodd" stroke="none"/>
      <path d="M-12.05 4.15 L-14.0 1.75 -12.9 2.7 Q-11.5 3.65 -10.15 3.75 -11.35 4.35 -12.05 4.15" fill="#1f7da6" fill-rule="evenodd" stroke="none"/>
      <path d="M1.85 -15.35 L1.35 -14.65 -0.25 -11.75 Q-1.45 -9.65 -1.6 -8.25 L-1.8 -9.3 Q-1.9 -9.8 -1.45 -11.0 -0.9 -12.4 0.05 -13.35 L1.35 -14.65 1.55 -15.2 1.85 -15.35" fill="#dff5f7" fill-rule="evenodd" stroke="none"/>
      <path d="M-5.35 -10.1 L-5.0 -10.4 Q-5.3 -9.45 -4.95 -7.85 -4.65 -6.35 -4.05 -5.6 -5.7 -6.9 -5.35 -10.1" fill="#dff5f7" fill-rule="evenodd" stroke="none"/>
      <path d="M1.25 -4.6 L1.15 -4.3 -0.1 -4.0 Q-2.0 -3.35 -2.4 -2.2 -2.55 -3.9 -2.15 -4.25 -1.1 -5.15 1.25 -4.6" fill="#bfe8ef" fill-rule="evenodd" stroke="none"/>
      <path d="M-14.2 1.05 L-14.4 0.65 Q-11.95 3.35 -9.85 2.7 L-12.3 2.65 Q-13.6 2.1 -14.2 1.05" fill="#dff5f7" fill-rule="evenodd" stroke="none"/>
      <path d="M-13.25 5.1 L-13.25 4.95 -11.85 4.85 -9.4 4.8 Q-12.0 6.6 -12.7 6.7 -12.35 6.05 -11.35 5.55 -12.55 6.0 -13.4 6.85 L-15.95 10.1 Q-15.95 7.5 -13.25 5.1" fill="#dff5f7" fill-rule="evenodd" stroke="none"/>
      <path d="M2.9 1.85 L5.5 1.55 Q3.3 3.1 0.0 3.1 -1.6 3.1 -2.45 3.55 L-3.9 4.05 Q-2.4 2.75 -2.35 2.3 -3.6 3.55 -5.9 4.4 -5.55 3.3 -4.8 2.15 L-8.3 4.2 -7.4 2.45 Q-5.9 1.5 -5.45 0.7 -3.7 1.55 -1.95 1.85 L2.9 1.85" fill="#dff5f7" fill-rule="evenodd" stroke="none"/>
      <path d="M7.1 2.1 Q7.85 2.55 8.25 3.35 6.35 2.65 5.35 2.5 3.75 2.15 3.4 1.85 L5.05 1.4 Q6.1 1.0 6.3 0.3 L6.3 0.15 8.8 1.65 10.05 3.45 Q8.15 2.15 7.1 2.1" fill="#dff5f7" fill-rule="evenodd" stroke="none"/>
    </g>
  </defs>
</svg>
